static/img/pages/customers/logos/toggle.svg

<?xml version="1.0" encoding="UTF-8"?>
<svg width="100%" height="100%" viewBox="0 0 110 16" preserveAspectRatio="xMinYMax" version="1.1" xmlns="http://www.w3.org/2000/svg" xmlns:xlink="http://www.w3.org/1999/xlink">
    <!-- Generator: Sketch 57.1 (83088) - https://sketch.com -->
    <title>Logo</title>
    <desc>Created with Sketch.</desc>
    <g id="beta" stroke="none" stroke-width="1" fill="none" fill-rule="evenodd">
        <g id="wrapper" transform="translate(-98.000000, -40.000000)">
            <g id="Group">
                <g id="Logo" transform="translate(98.000000, 40.000000)">
                    <polyline id="Fill-1" fill="#FFFFFF" points="7.769015 2.82138038 12.7536232 2.82138038 12.7536232 0.32 0 0.32 0 2.82138038 4.98511796 2.82138038 4.98511796 15.68 7.769015 15.68 7.769015 2.82138038"/>
                    <polyline id="Fill-2" fill="#FFFFFF" points="109.890375 0.32 98.5217391 0.32 98.5217391 15.68 110 15.68 110 13.2443799 101.199086 13.2443799 101.199086 9.14084069 108.902751 9.14084069 108.902751 6.70571873 101.199086 6.70571873 101.199086 2.75562013 109.890375 2.75562013 109.890375 0.32"/>
                    <polyline id="Fill-3" fill="#FFFFFF" points="84.8115942 15.68 95.6521739 15.68 95.6521739 13.2443799 87.5104374 13.2443799 87.5104374 0.32 84.8115942 0.32 84.8115942 15.68"/>
                    <path d="M80.9855072,13.5910687 L80.9855072,7.0938284 L78.3211052,7.0938284 L78.3211052,12.368289 C77.8432311,12.7255394 77.2794414,13.0095334 76.6302444,13.2267938 C75.9810474,13.4405419 75.2830462,13.5469142 74.5367493,13.5469142 C73.7304639,13.5469142 73.0029769,13.407426 72.3532715,13.1274461 C71.7040745,12.8474661 71.1443518,12.4570998 70.6741034,11.9633718 C70.203855,11.4696438 69.8418908,10.8840943 69.5882109,10.2027095 C69.3345309,9.52483693 69.2074368,8.78474661 69.2074368,7.98896136 C69.2074368,7.23783241 69.3380896,6.52684395 69.5993952,5.86352233 C69.8607008,5.19719017 70.2191063,4.61515304 70.6741034,4.1144004 C71.1296089,3.61314601 71.6669631,3.21525339 72.2861658,2.92824887 C72.905877,2.6407426 73.5738839,2.49724034 74.290695,2.49724034 C74.7828036,2.49724034 75.2347505,2.53788259 75.6450104,2.61866533 C76.0557788,2.69944807 76.4324859,2.81033618 76.7756401,2.95032614 C77.1193027,3.09031611 77.4477141,3.26342198 77.7613825,3.46964375 C78.0745425,3.67586553 78.3805852,3.90416458 78.6790023,4.15454089 L80.4257845,2.09934772 C80.0226419,1.76066232 79.6083149,1.46211741 79.1828036,1.20421475 C78.7572923,0.946813848 78.3058539,0.729051681 77.8284882,0.552433517 C77.3506141,0.375313598 76.8320699,0.239337682 76.2718388,0.143502258 C75.7121161,0.0476668339 75.0893547,0 74.4025379,0 C73.223104,0 72.1372115,0.213748118 71.1443518,0.640742599 C70.1514922,1.06823884 69.2974194,1.64626192 68.5806083,2.37581535 C67.8643056,3.10486703 67.3081416,3.95584546 66.9126245,4.92824887 C66.5171075,5.90065228 66.3188406,6.93176116 66.3188406,8.02207727 C66.3188406,9.15654792 66.5130405,10.2102358 66.9014402,11.1826392 C67.2893316,12.1550426 67.83787,12.9984947 68.5470555,13.7129955 C69.2562409,14.4274962 70.1108221,14.9874561 71.110799,15.3923733 C72.1107759,15.7977923 73.223104,16 74.447275,16 C75.1335835,16 75.7904061,15.9377822 76.4177429,15.8123432 C77.0445714,15.6874059 77.6307297,15.5143001 78.1752011,15.2930256 C78.7201808,15.0722529 79.2275408,14.8143502 79.6982975,14.5198194 C80.1680376,14.2247868 80.5976159,13.915705 80.9855072,13.5910687" id="Fill-4" fill="#FFFFFF"/>
                    <path d="M63.1304348,13.5910687 L63.1304348,7.0938284 L60.4655243,7.0938284 L60.4655243,12.368289 C59.9881586,12.7255394 59.4243689,13.0095334 58.7751719,13.2267938 C58.1259749,13.4405419 57.4279738,13.5469142 56.6816768,13.5469142 C55.8753915,13.5469142 55.1479045,13.407426 54.4981991,13.1274461 C53.8490021,12.8474661 53.2892794,12.4570998 52.819031,11.9633718 C52.3487826,11.4696438 51.9868184,10.8840943 51.7331384,10.2027095 C51.4794585,9.52483693 51.3523643,8.78474661 51.3523643,7.98896136 C51.3523643,7.23783241 51.4830171,6.52684395 51.7443227,5.86352233 C52.0056283,5.19719017 52.3635255,4.61515304 52.819031,4.1144004 C53.2740281,3.61314601 53.8118906,3.21525339 54.4310934,2.92824887 C55.0508045,2.6407426 55.7188114,2.49724034 56.4351142,2.49724034 C56.9277311,2.49724034 57.3791696,2.53788259 57.789938,2.61866533 C58.2001979,2.69944807 58.5774134,2.81033618 58.9205677,2.95032614 C59.2642303,3.09031611 59.5926416,3.26342198 59.9058016,3.46964375 C60.21947,3.67586553 60.5255128,3.90416458 60.8239299,4.15454089 L62.5707121,2.09934772 C62.1675694,1.76066232 61.7532424,1.46211741 61.3277311,1.20421475 C60.9022199,0.946813848 60.4507814,0.729051681 59.9729073,0.552433517 C59.4955417,0.375313598 58.9764891,0.239337682 58.4167664,0.143502258 C57.8570437,0.0476668339 57.2337739,0 56.546957,0 C55.3680315,0 54.282139,0.213748118 53.2892794,0.640742599 C52.2964198,1.06823884 51.4418386,1.64626192 50.7255359,2.37581535 C50.0087248,3.10486703 49.4525607,3.95584546 49.0570437,4.92824887 C48.6615266,5.90065228 48.4637681,6.93176116 48.4637681,8.02207727 C48.4637681,9.15654792 48.657968,10.2102358 49.0458594,11.1826392 C49.4342592,12.1550426 49.9827976,12.9984947 50.691983,13.7129955 C51.4006601,14.4274962 52.2557496,14.9874561 53.2557265,15.3923733 C54.2557034,15.7977923 55.3680315,16 56.5922025,16 C57.278511,16 57.9353337,15.9377822 58.5621621,15.8123432 C59.1894989,15.6874059 59.7751488,15.5143001 60.3201286,15.2930256 C60.8651084,15.0722529 61.3724683,14.8143502 61.8427167,14.5198194 C62.3129651,14.2247868 62.742035,13.915705 63.1304348,13.5910687" id="Fill-5" fill="#FFFFFF"/>
                    <path d="M24.2818543,2.57792 L24.2818543,2.57792 C27.2634462,2.57792 29.7023913,5.02584559 29.7023913,8.01792 C29.7023913,11.0099944 27.2634462,13.45792 24.2818543,13.45792 C21.3007567,13.45792 18.8618116,11.0099944 18.8618116,8.01792 C18.8618116,5.02584559 21.3007567,2.57792 24.2818543,2.57792 Z M24.2818515,0.01792 L24.2818515,0.01792 C19.898031,0.01792 16.311087,3.61802035 16.311087,8.01792 C16.311087,12.4183214 19.898031,16.01792 24.2818515,16.01792 C28.6661719,16.01792 32.2531159,12.4183214 32.2531159,8.01792 C32.2531159,3.61802035 28.6661719,0.01792 24.2818515,0.01792 L24.2818515,0.01792 Z" id="Fill-6" fill="#FFFFFF"/>
                    <path class="logoColor" d="M38.0348332,0 L31.884058,0 C33.9637987,2.01906673 35.2633279,4.86101355 35.2633279,8 C35.2633279,11.1389865 33.9637987,13.9809333 31.884058,16 L38.0348332,16 C42.3682442,16 45.9130435,12.4004014 45.9130435,8 C45.9130435,3.60010035 42.3682442,0 38.0348332,0" id="Fill-7" fill="#FFA852"/>
                </g>
            </g>
        </g>
    </g>
</svg>

<svg viewBox="0 0 110 16" preserveAspectRatio="xMinYMax" xmlns="http://www.w3.org/2000/svg" xmlns:xlink="http://www.w3.org/1999/xlink">
  <g fill="none" fill-rule="evenodd">
    <path fill="#FFFFFF" d="M7.769 2.821h4.985V.32H0v2.501h4.985V15.68h2.784V2.821M109.89.32H98.522v15.36H110v-2.436h-8.801V9.141h7.704V6.706h-7.704v-3.95h8.691V.32M84.812 15.68h10.84v-2.436H87.51V.32h-2.698v15.36M80.986 13.591V7.094H78.32v5.274a5.953 5.953 0 0 1-1.69.859c-.65.214-1.348.32-2.094.32-.807 0-1.534-.14-2.184-.42a5.064 5.064 0 0 1-1.679-1.164 5.095 5.095 0 0 1-1.086-1.76 6.276 6.276 0 0 1-.38-2.214 5.756 5.756 0 0 1 1.466-3.875c.456-.5.993-.899 1.612-1.186a4.704 4.704 0 0 1 2.005-.43c.492 0 .944.04 1.354.12a5.715 5.715 0 0 1 2.116.851c.314.207.62.435.918.686l1.747-2.056a9.96 9.96 0 0 0-1.243-.895 7.92 7.92 0 0 0-1.355-.652 8.686 8.686 0 0 0-1.556-.408A11.123 11.123 0 0 0 74.402 0c-1.179 0-2.265.214-3.258.64a7.964 7.964 0 0 0-2.563 1.736 7.79 7.79 0 0 0-1.668 2.552 8.132 8.132 0 0 0-.594 3.094c0 1.135.194 2.188.582 3.16a7.484 7.484 0 0 0 1.646 2.531 7.561 7.561 0 0 0 2.564 1.68c1 .405 2.112.607 3.336.607.687 0 1.343-.062 1.97-.188a9.69 9.69 0 0 0 3.281-1.292c.47-.295.9-.604 1.288-.929M63.13 13.591V7.094h-2.664v5.274a5.944 5.944 0 0 1-1.69.859c-.65.214-1.348.32-2.094.32-.807 0-1.534-.14-2.184-.42a5.064 5.064 0 0 1-1.679-1.164 5.095 5.095 0 0 1-1.086-1.76 6.276 6.276 0 0 1-.38-2.214 5.756 5.756 0 0 1 1.466-3.875c.455-.5.993-.899 1.612-1.186a4.703 4.703 0 0 1 2.004-.43c.493 0 .944.04 1.355.12.41.081.787.192 1.13.332.344.14.673.313.986.52.313.206.62.434.918.685l1.747-2.056a9.96 9.96 0 0 0-1.243-.895 7.907 7.907 0 0 0-1.355-.652 8.68 8.68 0 0 0-1.556-.408A11.13 11.13 0 0 0 56.547 0c-1.179 0-2.265.214-3.258.64a7.959 7.959 0 0 0-2.563 1.736 7.784 7.784 0 0 0-1.669 2.552 8.132 8.132 0 0 0-.593 3.094c0 1.135.194 2.188.582 3.16a7.493 7.493 0 0 0 1.646 2.531 7.556 7.556 0 0 0 2.564 1.68c1 .405 2.112.607 3.336.607.687 0 1.343-.062 1.97-.188a9.696 9.696 0 0 0 3.28-1.292c.471-.295.9-.604 1.288-.929M24.282 2.578c2.981 0 5.42 2.448 5.42 5.44 0 2.992-2.439 5.44-5.42 5.44s-5.42-2.448-5.42-5.44c0-2.992 2.439-5.44 5.42-5.44Zm0-2.56c-4.384 0-7.97 3.6-7.97 8s3.586 8 7.97 8 7.971-3.6 7.971-8-3.587-8-7.971-8Z"/>
    <path class="logoColor" d="M38.035 0h-6.15a11.128 11.128 0 0 1 3.378 8c0 3.139-1.3 5.98-3.379 8h6.15c4.334 0 7.879-3.6 7.879-8s-3.545-8-7.878-8" fill="#FFA852"/>
  </g>
</svg>
